src/com/lilithsthrone/res/perks/jobs/slave.svg

<?xml version="1.0" encoding="UTF-8" standalone="no"?>
<!-- Created with Inkscape (http://www.inkscape.org/) -->

<svg
   xmlns:dc="http://purl.org/dc/elements/1.1/"
   xmlns:cc="http://creativecommons.org/ns#"
   xmlns:rdf="http://www.w3.org/1999/02/22-rdf-syntax-ns#"
   xmlns:svg="http://www.w3.org/2000/svg"
   xmlns="http://www.w3.org/2000/svg"
   xmlns:sodipodi="http://sodipodi.sourceforge.net/DTD/sodipodi-0.dtd"
   xmlns:inkscape="http://www.inkscape.org/namespaces/inkscape"
   width="100%"
   height="100%"
   viewBox="0 0 64.000001 64.000001"
   id="svg4311"
   version="1.1"
   inkscape:version="0.92.3 (2405546, 2018-03-11)"
   sodipodi:docname="slave.svg">
  <defs
     id="defs4313">
    <inkscape:path-effect
       effect="powerstroke"
       id="path-effect4428"
       is_visible="true"
       offset_points="0,0.45453788"
       sort_points="true"
       interpolator_type="CubicBezierJohan"
       interpolator_beta="0.2"
       start_linecap_type="zerowidth"
       linejoin_type="round"
       miter_limit="4"
       end_linecap_type="zerowidth"
       cusp_linecap_type="round" />
    <inkscape:path-effect
       effect="powerstroke"
       id="path-effect4424"
       is_visible="true"
       offset_points="0,0.45453788"
       sort_points="true"
       interpolator_type="CubicBezierJohan"
       interpolator_beta="0.2"
       start_linecap_type="zerowidth"
       linejoin_type="round"
       miter_limit="4"
       end_linecap_type="zerowidth"
       cusp_linecap_type="round" />
    <inkscape:path-effect
       effect="powerstroke"
       id="path-effect4420"
       is_visible="true"
       offset_points="0,0.45453788"
       sort_points="true"
       interpolator_type="CubicBezierJohan"
       interpolator_beta="0.2"
       start_linecap_type="zerowidth"
       linejoin_type="round"
       miter_limit="4"
       end_linecap_type="zerowidth"
       cusp_linecap_type="round" />
    <inkscape:path-effect
       effect="powerstroke"
       id="path-effect4416"
       is_visible="true"
       offset_points="0,0.45453788"
       sort_points="true"
       interpolator_type="CubicBezierJohan"
       interpolator_beta="0.2"
       start_linecap_type="zerowidth"
       linejoin_type="round"
       miter_limit="4"
       end_linecap_type="zerowidth"
       cusp_linecap_type="round" />
    <inkscape:path-effect
       effect="powerstroke"
       id="path-effect4412"
       is_visible="true"
       offset_points="0,0.45453788"
       sort_points="true"
       interpolator_type="CubicBezierJohan"
       interpolator_beta="0.2"
       start_linecap_type="zerowidth"
       linejoin_type="round"
       miter_limit="4"
       end_linecap_type="zerowidth"
       cusp_linecap_type="round" />
    <inkscape:path-effect
       effect="powerstroke"
       id="path-effect4408"
       is_visible="true"
       offset_points="0,0.45453788"
       sort_points="true"
       interpolator_type="CubicBezierJohan"
       interpolator_beta="0.2"
       start_linecap_type="zerowidth"
       linejoin_type="round"
       miter_limit="4"
       end_linecap_type="zerowidth"
       cusp_linecap_type="round" />
    <inkscape:path-effect
       effect="powerstroke"
       id="path-effect4404"
       is_visible="true"
       offset_points="0,0.45453788"
       sort_points="true"
       interpolator_type="CubicBezierJohan"
       interpolator_beta="0.2"
       start_linecap_type="zerowidth"
       linejoin_type="round"
       miter_limit="4"
       end_linecap_type="zerowidth"
       cusp_linecap_type="round" />
    <inkscape:path-effect
       effect="powerstroke"
       id="path-effect4400"
       is_visible="true"
       offset_points="0,0.45453788"
       sort_points="true"
       interpolator_type="CubicBezierJohan"
       interpolator_beta="0.2"
       start_linecap_type="zerowidth"
       linejoin_type="round"
       miter_limit="4"
       end_linecap_type="zerowidth"
       cusp_linecap_type="round" />
    <inkscape:path-effect
       effect="powerstroke"
       id="path-effect4396"
       is_visible="true"
       offset_points="0,0.45453788"
       sort_points="true"
       interpolator_type="CubicBezierJohan"
       interpolator_beta="0.2"
       start_linecap_type="zerowidth"
       linejoin_type="round"
       miter_limit="4"
       end_linecap_type="zerowidth"
       cusp_linecap_type="round" />
    <inkscape:path-effect
       effect="powerstroke"
       id="path-effect4368"
       is_visible="true"
       offset_points="0.4275848,0.74371198"
       sort_points="true"
       interpolator_type="Linear"
       interpolator_beta="0.2"
       start_linecap_type="zerowidth"
       linejoin_type="round"
       miter_limit="4"
       end_linecap_type="zerowidth"
       cusp_linecap_type="round" />
    <inkscape:path-effect
       effect="powerstroke"
       id="path-effect4364"
       is_visible="true"
       offset_points="0.65871453,0.86358401"
       sort_points="true"
       interpolator_type="Linear"
       interpolator_beta="0.2"
       start_linecap_type="zerowidth"
       linejoin_type="round"
       miter_limit="4"
       end_linecap_type="zerowidth"
       cusp_linecap_type="round" />
    <inkscape:path-effect
       effect="powerstroke"
       id="path-effect4360"
       is_visible="true"
       offset_points="1.5590614,1.4694884"
       sort_points="true"
       interpolator_type="Linear"
       interpolator_beta="0.2"
       start_linecap_type="zerowidth"
       linejoin_type="round"
       miter_limit="4"
       end_linecap_type="zerowidth"
       cusp_linecap_type="round" />
    <inkscape:path-effect
       effect="powerstroke"
       id="path-effect4184"
       is_visible="true"
       offset_points="0,0.5"
       sort_points="true"
       interpolator_type="CubicBezierJohan"
       interpolator_beta="0.2"
       start_linecap_type="zerowidth"
       linejoin_type="round"
       miter_limit="4"
       end_linecap_type="zerowidth"
       cusp_linecap_type="round" />
    <inkscape:path-effect
       effect="powerstroke"
       id="path-effect4180"
       is_visible="true"
       offset_points="0,0.5"
       sort_points="true"
       interpolator_type="CubicBezierJohan"
       interpolator_beta="0.2"
       start_linecap_type="zerowidth"
       linejoin_type="round"
       miter_limit="4"
       end_linecap_type="zerowidth"
       cusp_linecap_type="round" />
    <inkscape:path-effect
       effect="powerstroke"
       id="path-effect4176"
       is_visible="true"
       offset_points="0,0.5"
       sort_points="true"
       interpolator_type="CubicBezierJohan"
       interpolator_beta="0.2"
       start_linecap_type="zerowidth"
       linejoin_type="round"
       miter_limit="4"
       end_linecap_type="zerowidth"
       cusp_linecap_type="round" />
    <inkscape:path-effect
       effect="powerstroke"
       id="path-effect4172"
       is_visible="true"
       offset_points="0,0.5"
       sort_points="true"
       interpolator_type="CubicBezierJohan"
       interpolator_beta="0.2"
       start_linecap_type="zerowidth"
       linejoin_type="round"
       miter_limit="4"
       end_linecap_type="zerowidth"
       cusp_linecap_type="round" />
    <inkscape:path-effect
       effect="powerstroke"
       id="path-effect4140"
       is_visible="true"
       offset_points="0.44353797,0.81148944"
       sort_points="true"
       interpolator_type="Linear"
       interpolator_beta="0.2"
       start_linecap_type="zerowidth"
       linejoin_type="round"
       miter_limit="4"
       end_linecap_type="zerowidth"
       cusp_linecap_type="round" />
    <inkscape:path-effect
       effect="powerstroke"
       id="path-effect4172-4"
       is_visible="true"
       offset_points="0,0.5"
       sort_points="true"
       interpolator_type="Linear"
       interpolator_beta="0.2"
       start_linecap_type="zerowidth"
       linejoin_type="round"
       miter_limit="4"
       end_linecap_type="zerowidth"
       cusp_linecap_type="round" />
    <inkscape:path-effect
       effect="powerstroke"
       id="path-effect4172-2"
       is_visible="true"
       offset_points="0,0.5"
       sort_points="true"
       interpolator_type="Linear"
       interpolator_beta="0.2"
       start_linecap_type="zerowidth"
       linejoin_type="round"
       miter_limit="4"
       end_linecap_type="zerowidth"
       cusp_linecap_type="round" />
  </defs>
  <sodipodi:namedview
     id="base"
     pagecolor="#ffffff"
     bordercolor="#666666"
     borderopacity="1.0"
     inkscape:pageopacity="0.0"
     inkscape:pageshadow="2"
     inkscape:zoom="7.9999996"
     inkscape:cx="39.090939"
     inkscape:cy="48.36944"
     inkscape:document-units="px"
     inkscape:current-layer="layer3"
     showgrid="false"
     units="px"
     inkscape:window-width="2560"
     inkscape:window-height="1388"
     inkscape:window-x="-8"
     inkscape:window-y="-8"
     inkscape:window-maximized="1" />
  <metadata
     id="metadata4316">
    <rdf:RDF>
      <cc:Work
         rdf:about="">
        <dc:format>image/svg+xml</dc:format>
        <dc:type
           rdf:resource="http://purl.org/dc/dcmitype/StillImage" />
        <dc:title></dc:title>
      </cc:Work>
    </rdf:RDF>
  </metadata>
  <g
     inkscape:groupmode="layer"
     id="layer3"
     inkscape:label="Stage3"
     style="display:inline">
    <path
       style="fill:#808080;fill-rule:evenodd;stroke:#000000;stroke-width:0.2541866px;stroke-linecap:butt;stroke-linejoin:miter;stroke-opacity:1"
       d="m 38.022308,18.204286 c 7.539713,0.255148 19.922634,4.650311 21.536352,12.61369 0.06866,0.338797 2.246712,-7.574634 2.246712,-7.574634 C 59.640125,18.067602 53.130823,10.52519 38.246981,9.3137204 Z"
       id="path4302"
       inkscape:connector-curvature="0" />
    <path
       style="fill:#999999;fill-rule:evenodd;stroke:#000000;stroke-width:0.2541866px;stroke-linecap:butt;stroke-linejoin:miter;stroke-opacity:1"
       d="M 2.1141114,26.030511 2.8131015,37.558117 C 12.66054,58.653802 56.120184,55.004292 62.126331,35.632361 L 62.534179,25.071864 C 52.740324,48.356421 11.077367,47.318445 2.1141114,26.030511 Z"
       id="path4298"
       inkscape:connector-curvature="0" />
    <path
       style="fill:#666666;fill-rule:evenodd;stroke:#000000;stroke-width:0.2541866px;stroke-linecap:butt;stroke-linejoin:miter;stroke-opacity:1"
       d="M 5.1240066,32.872113 C 8.594987,19.132423 30.659844,17.028525 41.649146,18.557341 l 0.06419,-1.668987 -2.963834,-0.302158 -0.0227,-4.466838 3.050722,0.211377 0.06419,-2.567672 C 26.43907,8.1280215 8.0041867,12.635925 3.9685542,22.023698 2.7705916,26.328146 3.5499577,29.772887 5.1240066,32.872113 Z"
       id="path4300"
       inkscape:connector-curvature="0" />
    <path
       style="fill:#ececec;fill-rule:evenodd;stroke:#000000;stroke-width:0.2541866px;stroke-linecap:butt;stroke-linejoin:miter;stroke-opacity:1"
       d="m 17.224162,42.115733 c -0.298924,0.128385 -0.266656,7.927688 0.06419,7.927688 2.892506,1.327259 6.153527,1.696373 9.468292,1.925756 0.4089,-2.706363 0.261881,-5.28599 0.165986,-8.076486 z"
       id="path4308"
       inkscape:connector-curvature="0" />
    <path
       style="fill:#cccccc;fill-rule:evenodd;stroke:#000000;stroke-width:0.2541866px;stroke-linecap:butt;stroke-linejoin:miter;stroke-opacity:1"
       d="M 41.713336,9.9556383 C 32.951847,8.5210738 6.0371257,10.956917 3.8589721,24.25161 2.5677482,32.132794 14.262466,38.548252 22.108246,40.039568 35.356633,42.557804 57.017425,38.863055 60.521537,26.7097 62.851388,18.629051 51.578422,11.630194 41.921959,9.9877345 L 42.291064,9.4742 c 8.528062,1.323753 22.388493,9.169654 19.993465,17.598623 C 58.390182,40.778442 35.390193,44.115269 21.374212,41.553584 12.746597,39.976725 0.09309846,32.613529 2.3637589,24.142028 6.1009857,10.198981 32.013237,8.170278 42.034297,9.4421039 Z"
       id="path4296"
       inkscape:connector-curvature="0" />
    <path
       style="fill:#f2f2f2;fill-rule:evenodd;stroke:#000000;stroke-width:0.2541866px;stroke-linecap:butt;stroke-linejoin:miter;stroke-opacity:1"
       d="m 18.1068,38.938241 c -0.44237,0.454691 -0.5522,1.005671 -0.577726,1.540602 0.647267,0.77565 1.583397,1.230344 1.941802,2.326953 l 3.321926,0.545632 c 0.609016,-0.850213 2.481719,-0.867045 3.723124,-1.299885 0.149475,-0.417397 0.278538,-0.906465 0.593775,-1.41222 0.02804,-0.200947 -2.60916,-0.56924 -4.792738,-0.988735 -2.201318,-0.4229 -4.030236,-0.959412 -4.210163,-0.712347 z"
       id="path4304"
       inkscape:connector-curvature="0" />
    <path
       style="opacity:1;fill:#f9f9f9;fill-opacity:1;stroke:#000000;stroke-width:0.24691039;stroke-linecap:round;stroke-linejoin:round;stroke-miterlimit:4;stroke-dasharray:none;stroke-dashoffset:0;stroke-opacity:1"
       d="m 20.853568,43.040787 a 7.4703776,7.8334923 0 0 0 -7.470783,7.833703 7.4703776,7.8334923 0 0 0 7.470783,7.833212 7.4703776,7.8334923 0 0 0 7.470309,-7.833212 7.4703776,7.8334923 0 0 0 -7.470309,-7.833703 z m 0,1.772173 a 5.7804356,6.0614071 0 0 1 5.780433,6.06153 5.7804356,6.0614071 0 0 1 -5.780433,6.061038 5.7804356,6.0614071 0 0 1 -5.780434,-6.061038 5.7804356,6.0614071 0 0 1 5.780434,-6.06153 z"
       id="path4263"
       inkscape:connector-curvature="0" />
    <path
       style="fill:#ffffff;fill-rule:evenodd;stroke:#000000;stroke-width:0.2541866px;stroke-linecap:butt;stroke-linejoin:miter;stroke-opacity:1"
       d="m 19.502972,42.757651 c -0.373198,0.638148 -0.60944,1.528531 0.129996,2.048632 0.76893,0.273367 1.975763,0.303036 3.122703,0.379645 -0.411391,-0.711638 -0.186182,-1.359018 0.101322,-2.01103 z"
       id="path4306"
       inkscape:connector-curvature="0" />
  </g>
</svg>

<svg xmlns="http://www.w3.org/2000/svg" viewBox="0 0 64 64">
    <g stroke="#000">
        <path fill="#808080" fill-rule="evenodd" stroke-width=".254" d="M38.022 18.204c7.54.255 19.923 4.65 21.537 12.614.068.339 2.246-7.575 2.246-7.575-2.165-5.175-8.674-12.718-23.558-13.93z"/>
        <path fill="#999" fill-rule="evenodd" stroke-width=".254" d="M2.114 26.03l.7 11.528c9.847 21.096 53.306 17.446 59.312-1.926l.408-10.56c-9.794 23.284-51.457 22.246-60.42.959z"/>
        <path fill="#666" fill-rule="evenodd" stroke-width=".254" d="M5.124 32.872C8.595 19.132 30.66 17.03 41.649 18.557l.064-1.669-2.963-.302-.023-4.467 3.05.212.065-2.568C26.439 8.128 8.004 12.636 3.969 22.023c-1.198 4.305-.419 7.75 1.155 10.85z"/>
        <path fill="#ececec" fill-rule="evenodd" stroke-width=".254" d="M17.224 42.116c-.299.128-.266 7.927.064 7.927 2.893 1.328 6.154 1.697 9.469 1.926.409-2.706.262-5.286.166-8.076z"/>
        <path fill="#ccc" fill-rule="evenodd" stroke-width=".254" d="M41.713 9.956c-8.761-1.435-35.676 1-37.854 14.296-1.291 7.88 10.403 14.296 18.25 15.788 13.248 2.518 34.908-1.177 38.413-13.33 2.33-8.08-8.944-15.08-18.6-16.722l.37-.514c8.527 1.324 22.388 9.17 19.993 17.599-3.895 13.705-26.895 17.042-40.91 14.48-8.628-1.576-21.282-8.94-19.011-17.411C6.1 10.199 32.014 8.17 42.034 9.442z"/>
        <path fill="#f2f2f2" fill-rule="evenodd" stroke-width=".254" d="M18.107 38.938c-.443.455-.552 1.006-.578 1.54.647.776 1.583 1.231 1.942 2.328l3.322.545c.609-.85 2.482-.867 3.723-1.3.15-.417.278-.906.594-1.412.028-.2-2.61-.569-4.793-.988-2.201-.423-4.03-.96-4.21-.713z"/>
        <path fill="#f9f9f9" stroke-linecap="round" stroke-linejoin="round" stroke-width=".247" d="M20.854 43.04a7.47 7.833 0 0 0-7.471 7.834 7.47 7.833 0 0 0 7.47 7.834 7.47 7.833 0 0 0 7.47-7.834 7.47 7.833 0 0 0-7.47-7.833zm0 1.773a5.78 6.061 0 0 1 5.78 6.061 5.78 6.061 0 0 1-5.78 6.062 5.78 6.061 0 0 1-5.78-6.062 5.78 6.061 0 0 1 5.78-6.061z"/>
        <path fill="#fff" fill-rule="evenodd" stroke-width=".254" d="M19.503 42.758c-.373.638-.61 1.528.13 2.048.769.274 1.976.303 3.123.38-.412-.712-.187-1.36.101-2.011z"/>
    </g>
</svg>
